img/svg/file-ico-48.svg

<svg width="48" height="48" viewBox="0 0 48 48" fill="none" xmlns="http://www.w3.org/2000/svg">
<path d="M32.5802 27.8594V16.6367C32.5802 15.5168 31.6691 14.6055 30.5489 14.6055H24.1562V21.8672C24.1562 23.5473 22.7895 24.9141 21.1094 24.9141C19.4292 24.9141 18.0625 23.5473 18.0625 21.8672V17.5C18.0625 16.939 18.5172 16.4844 19.0781 16.4844C19.6391 16.4844 20.0938 16.939 20.0938 17.5V21.8672C20.0938 22.4272 20.5494 22.8828 21.1094 22.8828C21.6694 22.8828 22.125 22.4272 22.125 21.8672V14.0469C22.125 13.4869 21.6694 13.0312 21.1094 13.0312C20.6406 13.0312 20.2243 13.3619 20.1195 13.8174C20.0057 14.3131 19.5465 14.6388 19.0543 14.6015C19.0287 14.6035 19.0029 14.6055 18.9766 14.6055H18.0625C16.9425 14.6055 16.0312 15.5168 16.0312 16.6367V32.9375C16.0312 34.0575 16.9425 34.9688 18.0625 34.9688H30.5491C31.6691 34.9688 32.5804 34.0575 32.5804 32.9375C32.5804 32.3765 33.035 31.9219 33.596 31.9219C34.1568 31.9219 34.6116 32.3765 34.6116 32.9375C34.6116 35.1776 32.7891 37 30.5491 37H18.0625C15.8224 37 14 35.1776 14 32.9375V16.6367C14 14.3966 15.8224 12.5742 18.0625 12.5742H18.4398C18.9631 11.6183 19.97 11 21.1094 11C22.2555 11 23.2555 11.6364 23.7756 12.5742H30.5489C32.7891 12.5742 34.6114 14.3966 34.6114 16.6367V27.8594C34.6114 28.4203 34.1568 28.875 33.5958 28.875C33.035 28.875 32.5802 28.4203 32.5802 27.8594V27.8594ZM19.0781 30.9062C18.5172 30.9062 18.0625 31.3609 18.0625 31.9219C18.0625 32.4828 18.5172 32.9375 19.0781 32.9375H26.4414C27.0024 32.9375 27.457 32.4828 27.457 31.9219C27.457 31.3609 27.0024 30.9062 26.4414 30.9062H19.0781ZM30.5039 27.9102C30.5039 27.3492 30.0493 26.8945 29.4883 26.8945H19.0781C18.5172 26.8945 18.0625 27.3492 18.0625 27.9102C18.0625 28.4711 18.5172 28.9258 19.0781 28.9258H29.4883C30.0493 28.9258 30.5039 28.4711 30.5039 27.9102ZM29.4883 22.9336H27.1523C26.5914 22.9336 26.1367 23.3882 26.1367 23.9492C26.1367 24.5102 26.5914 24.9648 27.1523 24.9648H29.4883C30.0493 24.9648 30.5039 24.5102 30.5039 23.9492C30.5039 23.3882 30.0493 22.9336 29.4883 22.9336ZM29.4883 18.9219H27.1523C26.5914 18.9219 26.1367 19.3765 26.1367 19.9375C26.1367 20.4985 26.5914 20.9531 27.1523 20.9531H29.4883C30.0493 20.9531 30.5039 20.4985 30.5039 19.9375C30.5039 19.3765 30.0493 18.9219 29.4883 18.9219Z" fill="#E0E0E0"/>
</svg>

<svg width="48" height="48" fill="none" xmlns="http://www.w3.org/2000/svg"><path d="M32.58 27.86V16.636c0-1.12-.91-2.032-2.031-2.032h-6.393v7.262a3.05 3.05 0 01-3.047 3.047 3.05 3.05 0 01-3.047-3.047V17.5a1.016 1.016 0 112.032 0v4.367a1.017 1.017 0 002.031 0v-7.82c0-.56-.456-1.016-1.016-1.016-.468 0-.885.33-.99.786a1.015 1.015 0 01-1.065.784.993.993 0 01-.077.004h-.915c-1.12 0-2.03.912-2.03 2.032v16.3c0 1.12.91 2.032 2.03 2.032H30.55c1.12 0 2.031-.912 2.031-2.032a1.015 1.015 0 112.032 0A4.067 4.067 0 0130.549 37H18.063A4.067 4.067 0 0114 32.937v-16.3a4.067 4.067 0 014.063-4.063h.377a3.049 3.049 0 015.336 0h6.773a4.067 4.067 0 014.062 4.063v11.222a1.016 1.016 0 11-2.03 0zm-13.502 3.046a1.016 1.016 0 000 2.032h7.363a1.016 1.016 0 100-2.032h-7.363zm11.426-2.996c0-.56-.455-1.015-1.016-1.015h-10.41a1.016 1.016 0 000 2.03h10.41c.561 0 1.016-.454 1.016-1.015zm-1.016-4.976h-2.336a1.016 1.016 0 100 2.03h2.336a1.015 1.015 0 100-2.03zm0-4.012h-2.336a1.016 1.016 0 100 2.031h2.336a1.015 1.015 0 100-2.031z" fill="#E0E0E0"/></svg>
